images/新建产品/u4912_disabled.svg

<svg xmlns="http://www.w3.org/2000/svg" width="12" height="12" viewBox="220 484 12 12"><path fill="#f0f0f0" d="M226 484c3.36 0 6 2.64 6 6s-2.64 6-6 6-6-2.64-6-6 2.64-6 6-6"/><path fill="none" stroke="#797979" d="M226 484.5c3.08 0 5.5 2.42 5.5 5.5s-2.42 5.5-5.5 5.5-5.5-2.42-5.5-5.5 2.42-5.5 5.5-5.5Z"/></svg>

﻿<?xml version="1.0" encoding="utf-8"?>
<svg version="1.1" xmlns:xlink="http://www.w3.org/1999/xlink" width="12px" height="12px" viewBox="220 484  12 12" xmlns="http://www.w3.org/2000/svg">
  <path d="M 226 484  C 229.36 484  232 486.64  232 490  C 232 493.36  229.36 496  226 496  C 222.64 496  220 493.36  220 490  C 220 486.64  222.64 484  226 484  Z " fill-rule="nonzero" fill="#f0f0f0" stroke="none" />
  <path d="M 226 484.5  C 229.08 484.5  231.5 486.92  231.5 490  C 231.5 493.08  229.08 495.5  226 495.5  C 222.92 495.5  220.5 493.08  220.5 490  C 220.5 486.92  222.92 484.5  226 484.5  Z " stroke-width="1" stroke="#797979" fill="none" />
</svg>
